X:1
T: Hornpipe
P:Kerr's 2nd #339
R:Reel
Q: 232
K:Bb
M:4/4
L:1/8
|:F2|B2 BA BF DF|B2 BA Bc de|gf dB bf dB|AB cB AF GA|
B2 BA BF DF|B2 BA Bc de|gf dB bf dB|AF GA B2:|
|:AB|cf =ef df ef|cf =ef df ef|=ef gf ec de|fa g=e fe fd|
cf =ef df ef|cf =ef df ef|=ef gf ec de|f2 a2 f2:|
